icon-themes/sifr_svg/cmd/sc_insertapplet.svg

<svg viewBox="0 0 16 16" xmlns="http://www.w3.org/2000/svg"><path d="m1 .5v13.84375c0 .90965 3.134006 1.65625 7 1.65625 3.865993 0 7-.7466 7-1.65625v-13.84375c0 .90964-3.134008 1.5-7 1.5-3.865994 0-7-.59036-7-1.5zm2 4.5h1.5c.84047 0 1.5.6822902 1.5 1.5v3 .5h-.5-2c-.454486 0-.868435-.17955-1.125-.46875s-.3718-.6707498-.375-1.03125c-.0032-.3605.117405-.73891.375-1.03125s.664997-.46873 1.125-.46875h1.5v-.5c0-.19237-.284443-.5-.5-.5h-1.5zm4 2h.5 1.5c.454486 0 .868441.17954 1.1249997.46875.256559.28921.3718.67075.375 1.03125s-.117399.7389198-.375 1.0312498c-.2575994.2923302-.6649954.4687502-1.1249997.4687502h-1v.5 1.5h-1v-1.5-3zm4 0h.5 1.5c.454486.00001.868443.17954 1.125.46875s.3718.67075.375 1.03125-.117397.7389198-.375 1.0312498-.664997.46876-1.125.46875h-1v.5 1.5h-1v-1.4999998-3zm-7.5 1c-.21199.00001-.30215.0736-.375.15625-.07285.0827-.1262.20426-.125.34375s.0489.25795.125.34375c.0761.0857.175265.15626.375.15625h1.5v-1zm4.5 0v1h1c.21199 0 .302159-.0736.375-.15625.07284-.0827.1262-.20426.125-.34375s-.04889-.25795-.125-.34375-.175265-.15625-.375-.15625zm3.9999997 0v1h1c.21199 0 .302161-.0736.375-.15625.07284-.0827.1262-.20426.125-.34375s-.04889-.25795-.125-.34375-.175265-.15625-.375-.15625z" fill="#555753"/></svg>

<svg xmlns="http://www.w3.org/2000/svg" viewBox="0 0 16 16">
  <path
     style="fill:#555753"
     d="M 1,0.5 V 14.34375 C 1,15.2534 4.134006,16 8.,16 11.865993,16 15.,15.2534 15.,14.34375 V 0.5 c 0,0.90964 -3.134008,1.5 -7,1.5 C 4.134006,2 1,1.40964 1,0.5 Z M 3,5 H 4.5 C 5.34047,5 6,5.6822902 6,6.5 V 9.5 10 H 5.5 3.5 C 3.045514,10. 2.631565,9.82045 2.375,9.53125 2.118435,9.24205 2.0032,8.8605002 2,8.5 c -0.0032,-0.3605 0.117405,-0.73891 0.375,-1.03125 0.257595,-0.29234 0.664997,-0.46873 1.125,-0.46875 H 5 v -0.5 c 0,-0.19237 -0.284443,-0.5 -0.5,-0.5 H 3 Z m 4,2. h 0.5 1.5 c 0.454486,0 0.868441,0.17954 1.1249997,0.46875 0.256559,0.28921 0.3718,0.67075 0.375,1.03125 0.0032,0.3605 -0.117399,0.7389198 -0.375,1.0312498 C 9.8674003,9.82358 9.4600043,10 9.,10 h -1 V 10.5 12 H 7 V 10.5 7.5 Z m 4.,0 h 0.5 1.5 c 0.454486,1e-5 0.868443,0.17954 1.125,0.46875 0.256557,0.28921 0.3718,0.67075 0.375,1.03125 0.0032,0.3605 -0.117397,0.7389198 -0.375,1.0312498 -0.257603,0.29233 -0.664997,0.46876 -1.125,0.46875 h -1 v 0.5 1.5 h -1 V 10.5 7.5 Z m -7.5,1 c -0.21199,10e-6 -0.30215,0.0736 -0.375,0.15625 -0.07285,0.0827 -0.1262,0.20426 -0.125,0.34375 0.0012,0.13949 0.0489,0.25795 0.125,0.34375 0.0761,0.0857 0.175265,0.15626 0.375,0.15625 H 5 v -1 z m 4.5,0 v 1 h 1 c 0.21199,0 0.302159,-0.0736 0.375,-0.15625 0.07284,-0.0827 0.1262,-0.20426 0.125,-0.34375 -0.0012,-0.13949 -0.04889,-0.25795 -0.125,-0.34375 -0.07611,-0.0858 -0.175265,-0.15625 -0.375,-0.15625 z m 3.9999997,0 v 1 h 1 c 0.21199,0 0.302161,-0.0736 0.375,-0.15625 0.07284,-0.0827 0.1262,-0.20426 0.125,-0.34375 -0.0012,-0.13949 -0.04889,-0.25795 -0.125,-0.34375 -0.07611,-0.0858 -0.175265,-0.15625 -0.375,-0.15625 z"
     />
</svg>
